!!!OTL: Xundian shange
!!!ARE: Asia, China,ÿYunnan
!! II, 84
!!!SCT: C1494
!!!YEM: Copyright 1995, estate of Helmut Schaffrath.
**kern
*ICvox
*Ivox
!! Mixed meters:  2/4; 3/4; 4/4
*M2/4
*k[f#]
*G:
{8d
16d
16d
8d
16e
16g
=1
16a
16b
4dd
8ee
=2
8cc
16dd
16ee
8dd
8dd}
=3
*M3/4
{16.a
32b
16dd
16ee
8b
16b
16a
16g
16a
8b
=4
*M2/4
8a
32a
32g
32a
32g
16e
16d
8e
=5
2d}
=6
{8d
8d
16d
16e
16g
16a
=7
*M4/4
8dd
8dd
4a
16a
16b
4dd}
{8ee
=8
*M3/4
8dd
16dd
16dd
8b
16b
16a
16g
16a
8b
=9
*M2/4
8a
16a
16g
16e
16d
8e
=10
2d}
==
!!!AGN: Shange
!!!AMT: irregular
!!!AIN: vox
!!!EED: Helmut Schaffrath
!!!EEV: 1.0
*-
